X: 2
T: Bo Mhin Na Toitean
R: strathspey
M: 4/4
L: 1/8
K: Ador
A2 e2 e2 dB | d2 ef ge a2 | A2 e2 e2 dB | g2 ed B2 AG |A2 e2 e2 dB | d2 ef ge a2 | ge dB e/f/e fd | ef dB A3 G |A2 e2 e2 dB | d2 ef ge a2 | A2 e2 e/f/e dB | g2 ed B/c/B AG |A2 e2 e2 dB | d2 ef ge a2 | ge dB g2 ed | B2 A2 A2 ||A2 a2 a2 ge | d2 ef ge a2 | A2 a2 a2 ge | dg ed B/c/B A2 |A2 a2 a2 ge | d2 ef ge a2 | ge dB g2 ed | B/c/B A2 A2 :|A2 e2 e2 dB | d2 ef ge a2 | A2 e2 e2 dB | d2 ed B2 A2 |A2 e2 e2 dB | d2 ef ge a2 | ge dB g2 ed | B2 A2 A2 BG |A2 e2 e2 dB | d2 ef ge a2 | A2 e2 e2 dB | g2 ed B2 AG |A2 e2 e2 dB | d2 ef ge a2 | ge dB g2 ed | B2 A2 A2 ||A2 a2 a2 ge | d2 ef ge a2 | A2 a2 a2 ge | dg ed B/c/B A2 |A2 a2 a2 ge | d2 ef ge a2 | ge dB g2 ed | B/c/B A2 A2 :|A2 e2 e2 dB | d2 ef ge a2 | A2 e2 e2 dB | g2 ed B2 AG |A2 e2 e2 dB | d2 ef ge a2 | ge dB e2 fd | ef dB A3 G |]


Tune 5252	Setting 25083

